docs/img/icons/instagram.svg

<svg width="38" height="37" viewBox="0 0 38 37" fill="none" xmlns="http://www.w3.org/2000/svg">
<rect width="37.3627" height="36.2823" rx="18.1412" fill="white"/>
<path d="M18.6813 10.7098C21.1572 10.7098 21.4948 10.7098 22.5076 10.7098C23.4079 10.7098 23.8581 10.9284 24.1957 11.0377C24.6459 11.2562 24.9835 11.3655 25.3211 11.6934C25.6587 12.0212 25.8838 12.3491 25.9963 12.7862C26.1089 13.1141 26.2214 13.5512 26.3339 14.4255C26.3339 15.409 26.3339 15.6276 26.3339 18.1411C26.3339 20.6547 26.3339 20.8733 26.3339 21.8568C26.3339 22.7311 26.1089 23.1682 25.9963 23.4961C25.7712 23.9332 25.6587 24.2611 25.3211 24.5889C24.9835 24.9168 24.6459 25.1353 24.1957 25.2446C23.8581 25.3539 23.4079 25.4632 22.5076 25.5725C21.4948 25.5725 21.2697 25.5725 18.6813 25.5725C16.093 25.5725 15.8679 25.5725 14.855 25.5725C13.9547 25.5725 13.5046 25.3539 13.167 25.2446C12.7168 25.0261 12.3792 24.9168 12.0416 24.5889C11.704 24.2611 11.4789 23.9332 11.3664 23.4961C11.2538 23.1682 11.1413 22.7311 11.0287 21.8568C11.0287 20.8733 11.0287 20.6547 11.0287 18.1411C11.0287 15.6276 11.0287 15.409 11.0287 14.4255C11.0287 13.5512 11.2538 13.1141 11.3664 12.7862C11.5914 12.3491 11.704 12.0212 12.0416 11.6934C12.3792 11.3655 12.7168 11.147 13.167 11.0377C13.5046 10.9284 13.9547 10.8191 14.855 10.7098C15.8679 10.7098 16.2055 10.7098 18.6813 10.7098ZM18.6813 9.07056C16.093 9.07056 15.8679 9.07056 14.855 9.07056C13.8422 9.07056 13.167 9.28913 12.6043 9.50769C12.0416 9.72626 11.4789 10.0541 10.9162 10.6005C10.3535 11.147 10.1284 11.5841 9.79082 12.2398C9.56574 12.7862 9.45321 13.4419 9.34067 14.4255C9.34067 15.409 9.34067 15.7369 9.34067 18.1411C9.34067 20.6547 9.34067 20.8733 9.34067 21.8568C9.34067 22.8404 9.56574 23.4961 9.79082 24.0425C10.0159 24.5889 10.3535 25.1353 10.9162 25.6818C11.4789 26.2282 11.929 26.4467 12.6043 26.7746C13.167 26.9932 13.8422 27.1024 14.855 27.2117C15.8679 27.2117 16.2055 27.2117 18.6813 27.2117C21.1572 27.2117 21.4948 27.2117 22.5076 27.2117C23.5205 27.2117 24.1957 26.9932 24.7584 26.7746C25.3211 26.556 25.8838 26.2282 26.4465 25.6818C27.0092 25.1353 27.2342 24.6982 27.5718 24.0425C27.7969 23.4961 27.9095 22.8404 28.022 21.8568C28.022 20.8733 28.022 20.5454 28.022 18.1411C28.022 15.7369 28.022 15.409 28.022 14.4255C28.022 13.4419 27.7969 12.7862 27.5718 12.2398C27.3468 11.6934 27.0092 11.147 26.4465 10.6005C25.8838 10.0541 25.4336 9.83555 24.7584 9.50769C24.1957 9.28913 23.5205 9.17984 22.5076 9.07056C21.4948 9.07056 21.2697 9.07056 18.6813 9.07056Z" fill="#0B0B0B"/>
<path d="M18.6813 13.4419C15.9804 13.4419 13.8422 15.5183 13.8422 18.1411C13.8422 20.764 15.9804 22.8404 18.6813 22.8404C21.3822 22.8404 23.5205 20.764 23.5205 18.1411C23.5205 15.5183 21.3822 13.4419 18.6813 13.4419ZM18.6813 21.2011C16.9933 21.2011 15.5303 19.8897 15.5303 18.1411C15.5303 16.5019 16.8807 15.0812 18.6813 15.0812C20.3694 15.0812 21.8324 16.3926 21.8324 18.1411C21.8324 19.7804 20.3694 21.2011 18.6813 21.2011Z" fill="#0B0B0B"/>
<path d="M23.633 14.4255C24.2545 14.4255 24.7584 13.9362 24.7584 13.3326C24.7584 12.7291 24.2545 12.2398 23.633 12.2398C23.0115 12.2398 22.5076 12.7291 22.5076 13.3326C22.5076 13.9362 23.0115 14.4255 23.633 14.4255Z" fill="#0B0B0B"/>
</svg>

<svg width="38" height="37" fill="none" xmlns="http://www.w3.org/2000/svg"><rect width="37.363" height="36.282" rx="18.141" fill="#fff"/><path d="M18.681 10.71h3.827c.9 0 1.35.218 1.688.328.45.218.787.328 1.125.655.338.328.563.656.675 1.093.113.328.225.765.338 1.64v7.431c0 .874-.225 1.311-.338 1.64-.225.436-.337.764-.675 1.092-.338.328-.675.546-1.125.656-.338.109-.788.218-1.688.328h-7.653c-.9 0-1.35-.22-1.688-.328-.45-.219-.788-.328-1.125-.656-.338-.328-.563-.656-.676-1.093-.112-.328-.225-.765-.337-1.64v-7.43c0-.875.225-1.312.337-1.64.225-.437.338-.765.676-1.093.337-.327.675-.546 1.125-.655.338-.11.788-.219 1.688-.328h3.826zm0-1.64h-3.826a5.792 5.792 0 00-2.25.438 4.929 4.929 0 00-1.689 1.093c-.563.546-.788.983-1.125 1.639-.225.546-.338 1.202-.45 2.185v7.432c0 .983.225 1.64.45 2.186a4.764 4.764 0 001.125 1.639c.563.546 1.013.765 1.688 1.093.563.218 1.238.327 2.251.437h7.653a5.791 5.791 0 002.25-.437 4.929 4.929 0 001.689-1.093c.562-.547.787-.984 1.125-1.64.225-.546.338-1.202.45-2.185v-7.432c0-.984-.225-1.64-.45-2.186a4.763 4.763 0 00-1.125-1.64c-.563-.546-1.013-.764-1.689-1.092-.562-.219-1.238-.328-2.25-.437H18.68z" fill="#0B0B0B"/><path d="M18.681 13.442c-2.7 0-4.839 2.076-4.839 4.7 0 2.622 2.138 4.698 4.84 4.698 2.7 0 4.838-2.076 4.838-4.699 0-2.623-2.138-4.7-4.839-4.7zm0 7.76c-1.688 0-3.15-1.312-3.15-3.06 0-1.64 1.35-3.06 3.15-3.06 1.688 0 3.151 1.31 3.151 3.06 0 1.638-1.463 3.06-3.15 3.06zm4.952-6.777c.622 0 1.125-.489 1.125-1.092 0-.604-.503-1.093-1.125-1.093-.621 0-1.125.49-1.125 1.093s.504 1.092 1.125 1.092z" fill="#0B0B0B"/></svg>
